lightbulb-group.svg

<svg  viewBox="0 0 24 24" fill="currentColor"><path  d="M15 14V16A1 1 0 0 1 14 17H10A1 1 0 0 1 9 16V14A5 5 0 1 1 15 14M14 18H10V19A1 1 0 0 0 11 20H13A1 1 0 0 0 14 19M7 19V18H5V19A1 1 0 0 0 6 20H7.17A2.93 2.93 0 0 1 7 19M5 10A6.79 6.79 0 0 1 5.68 7A4 4 0 0 0 4 14.45V16A1 1 0 0 0 5 17H7V14.88A6.92 6.92 0 0 1 5 10M17 18V19A2.93 2.93 0 0 1 16.83 20H18A1 1 0 0 0 19 19V18M18.32 7A6.79 6.79 0 0 1 19 10A6.92 6.92 0 0 1 17 14.88V17H19A1 1 0 0 0 20 16V14.45A4 4 0 0 0 18.32 7Z"/></svg>

<svg fill="currentColor" viewBox="0 0 24 24"><path d="M15 14v2a1 1 0 0 1-1 1h-4a1 1 0 0 1-1-1v-2a5 5 0 1 1 6 0m-1 4h-4v1a1 1 0 0 0 1 1h2a1 1 0 0 0 1-1m-7 0v-1H5v1a1 1 0 0 0 1 1h1.17A2.9 2.9 0 0 1 7 19m-2-9a6.8 6.8 0 0 1 .68-3A4 4 0 0 0 4 14.45V16a1 1 0 0 0 1 1h2v-2.12A6.92 6.92 0 0 1 5 10m12 8v1a2.9 2.9 0 0 1-.17 1H18a1 1 0 0 0 1-1v-1m-.68-11a6.8 6.8 0 0 1 .68 3 6.92 6.92 0 0 1-2 4.88V17h2a1 1 0 0 0 1-1v-1.55A4 4 0 0 0 18.32 7"/></svg>
